X:5125
T:The Distant Steeple
M:6/8
R:Jig
L:1/8
Q:180
C:Aidan Crossey
K:A
|:ce|aec AED|CEA cec|def ecA|G2A Bce|
aec AED|CEA cec|def ecA|dBG A:||
|:BA|GAB Bcd|efe efg|aec AED|CEc Bce|
aec AED|CEA cec|def ecA|dBG A:||
